X:312
T:Alister McAlister
T:Alasdair Mac Alasdair
T:Mrs Wemyss of Cuttle Hill
B:Kerr's Merry Melodies Book 2
Z:Nigel Gatherer
R:Strathspey
M:4/4
L:1/8
K:Am
e/d/|c<AA>G E<AA>B|c<AA>B e2 e>d|c<AA>G E<AA>c|B<GG>B d2- d:|
B|c>de>f g>ag>e|c>de>f g2 g>e|c>de>f g>ag>e|B<GG>B d2- d>B|
c>de>f g>ag>e|c>de>f g2 g>a|_b>ga>f g>ef>d|B<GG>B d2- d|]
<end>
<start>
